icons/adobespark-filled.svg

<svg width="256" height="256" viewBox="0 0 256 256" fill="none" xmlns="http://www.w3.org/2000/svg">
<path d="M196 0H60C26.8629 0 0 26.8629 0 60V196C0 229.137 26.8629 256 60 256H196C229.137 256 256 229.137 256 196V60C256 26.8629 229.137 0 196 0Z" fill="#370000"/>
<path d="M80.0653 166.55C74.5806 166.601 69.1052 166.088 63.7253 165.02C59.4736 164.213 55.3363 162.89 51.4053 161.08C50.5453 160.65 50.1153 159.74 50.1153 158.34V139.17C50.1021 139.002 50.1319 138.833 50.2019 138.679C50.2718 138.525 50.3797 138.391 50.5153 138.29C50.6756 138.22 50.8508 138.191 51.0253 138.205C51.1998 138.219 51.3682 138.276 51.5153 138.37C60.2797 143.774 70.359 146.67 80.6553 146.74C86.7753 146.74 91.1486 145.8 93.7753 143.92C94.9787 143.186 95.9767 142.159 96.6761 140.935C97.3755 139.711 97.7537 138.33 97.7753 136.92C97.8012 135.197 97.3551 133.499 96.4853 132.01C95.3222 130.266 93.7806 128.807 91.9753 127.74C89.1668 126.021 86.2039 124.569 83.1253 123.4L75.1253 120.01C68.5786 117.224 63.4519 114.247 59.7453 111.08C56.3803 108.367 53.75 104.854 52.0953 100.86C50.6841 97.1016 49.9756 93.1154 50.0053 89.1004C49.8964 83.4028 51.4739 77.8001 54.5395 72.9963C57.605 68.1924 62.022 64.4017 67.2353 62.1004C72.9219 59.3738 80.0053 58.0071 88.4853 58.0004C93.3064 57.9862 98.1223 58.3204 102.895 59.0004C106.605 59.4101 110.223 60.4234 113.605 62.0004C113.971 62.209 114.271 62.5169 114.469 62.8885C114.667 63.2602 114.756 63.6804 114.725 64.1004V82.3404C114.71 82.4811 114.667 82.6172 114.598 82.7409C114.529 82.8645 114.437 82.9732 114.325 83.0604C114.055 83.3304 113.705 83.3104 113.325 82.9804C109.763 81.1531 105.973 79.8079 102.055 78.9804C97.6396 78.002 93.128 77.5224 88.6053 77.5504C85.9522 77.5012 83.303 77.7731 80.7153 78.3604C78.8824 78.764 77.1198 79.4381 75.4853 80.3604C74.2169 81.0773 73.1769 82.1381 72.4853 83.4204C71.8483 84.5799 71.5049 85.8777 71.4853 87.2004C71.4613 88.8452 71.9661 90.4541 72.9253 91.7904C74.2556 93.4293 75.8972 94.7888 77.7553 95.7904C80.8006 97.5389 83.9348 99.1277 87.1453 100.55L93.1453 102.81C100.225 105.71 105.752 108.794 109.725 112.06C113.334 114.874 116.206 118.522 118.095 122.69C119.725 126.592 120.548 130.783 120.515 135.01C120.633 140.961 118.857 146.794 115.445 151.67C111.872 156.585 106.99 160.396 101.355 162.67C95.3219 165.257 88.2253 166.55 80.0653 166.55Z" fill="#FA0F00"/>
<path d="M164.605 83.3104C170.825 83.1587 177.011 84.2606 182.795 86.5504C187.578 88.5104 191.868 91.5055 195.355 95.3204C198.638 98.9531 201.179 103.193 202.835 107.8C204.518 112.5 205.365 117.458 205.335 122.45C205.496 129.123 204.088 135.741 201.225 141.77C198.589 147.145 194.774 151.855 190.065 155.55C185.334 159.264 179.962 162.077 174.215 163.85C168.347 165.662 162.237 166.572 156.095 166.55C155.667 166.547 155.24 166.521 154.815 166.47C154.275 166.47 153.205 166.39 152.555 166.39V193.75C152.592 194.095 152.49 194.44 152.273 194.71C152.055 194.98 151.74 195.153 151.395 195.19H151.275C149.665 195.3 148.275 195.46 146.035 195.67C143.795 195.88 141.715 196.1 139.675 196.32C137.635 196.54 135.865 196.69 134.365 196.8C133.445 196.836 132.529 196.943 131.625 197.12C130.985 197.12 130.625 196.69 130.625 195.84V101.34C130.625 100.59 130.625 99.5104 130.545 98.1204C130.465 96.7304 130.435 95.3604 130.375 94.0104C130.348 92.9604 130.268 91.9124 130.135 90.8704C130.096 90.6523 130.141 90.4273 130.262 90.2415C130.383 90.0557 130.57 89.9229 130.785 89.8704C133.452 88.9037 136.535 87.9371 140.035 86.9704C143.525 85.9704 147.335 85.1504 151.475 84.3904C155.811 83.6373 160.205 83.2759 164.605 83.3104ZM162.665 102.31C160.993 102.3 159.322 102.41 157.665 102.64C156.165 102.85 154.085 102.64 152.475 103.07V147.07C153.456 147.395 154.459 147.653 155.475 147.84C156.475 147.84 157.325 147.92 157.975 147.92C161.9 147.911 165.781 147.104 169.385 145.55C173.142 143.951 176.355 141.297 178.635 137.91C181.109 134.357 182.345 129.69 182.345 123.91C182.345 117.037 180.625 111.724 177.185 107.97C173.745 104.217 168.915 102.327 162.695 102.3L162.665 102.31Z" fill="#FA0F00"/>
</svg>

<svg xmlns="http://www.w3.org/2000/svg" width="256" height="256" fill="none"><path fill="#370000" d="M196 0H60C26.863 0 0 26.863 0 60v136c0 33.137 26.863 60 60 60h136c33.137 0 60-26.863 60-60V60c0-33.137-26.863-60-60-60"/><path fill="#FA0F00" d="M80.065 166.55a80 80 0 0 1-16.34-1.53 53.2 53.2 0 0 1-12.32-3.94c-.86-.43-1.29-1.34-1.29-2.74v-19.17a1 1 0 0 1 .4-.88 1.06 1.06 0 0 1 1 .08 56.25 56.25 0 0 0 29.14 8.37q9.18 0 13.12-2.82a8.35 8.35 0 0 0 4-7 9.45 9.45 0 0 0-1.29-4.91 13.95 13.95 0 0 0-4.51-4.27 53 53 0 0 0-8.85-4.34l-8-3.39q-9.82-4.18-15.38-8.93a25.8 25.8 0 0 1-7.65-10.22 32.8 32.8 0 0 1-2.09-11.76 28.91 28.91 0 0 1 17.23-27q8.53-4.09 21.25-4.1c4.821-.014 9.637.32 14.41 1 3.71.41 7.328 1.423 10.71 3a2.23 2.23 0 0 1 1.12 2.1v18.24a1.05 1.05 0 0 1-.4.72c-.27.27-.62.25-1-.08a45 45 0 0 0-11.27-4 60.4 60.4 0 0 0-13.45-1.43 33 33 0 0 0-7.89.81 19 19 0 0 0-5.23 2 7.73 7.73 0 0 0-3 3.06 8.1 8.1 0 0 0-1 3.78 7.68 7.68 0 0 0 1.44 4.59 16 16 0 0 0 4.83 4 101 101 0 0 0 9.39 4.76l6 2.26q10.62 4.35 16.58 9.25a28.3 28.3 0 0 1 8.37 10.63 31.3 31.3 0 0 1 2.42 12.32 28.1 28.1 0 0 1-5.07 16.66 32.4 32.4 0 0 1-14.09 11q-9.05 3.88-21.29 3.88m84.54-83.24c6.22-.151 12.406.95 18.19 3.24a35 35 0 0 1 12.56 8.77 37.6 37.6 0 0 1 7.48 12.48 42.7 42.7 0 0 1 2.5 14.65 42.64 42.64 0 0 1-4.11 19.32 39.8 39.8 0 0 1-11.16 13.78 49.1 49.1 0 0 1-15.85 8.3 60.7 60.7 0 0 1-18.12 2.7 11 11 0 0 1-1.28-.08c-.54 0-1.61-.08-2.26-.08v27.36a1.31 1.31 0 0 1-1.16 1.44h-.12c-1.61.11-3 .27-5.24.48s-4.32.43-6.36.65-3.81.37-5.31.48c-.92.036-1.836.143-2.74.32-.64 0-1-.43-1-1.28v-94.5c0-.75 0-1.83-.08-3.22s-.11-2.76-.17-4.11a31 31 0 0 0-.24-3.14.87.87 0 0 1 .65-1q4-1.45 9.25-2.9c3.49-1 7.3-1.82 11.44-2.58a73.4 73.4 0 0 1 13.13-1.08m-1.94 19a35 35 0 0 0-5 .33c-1.5.21-3.58 0-5.19.43v44c.981.325 1.984.583 3 .77 1 0 1.85.08 2.5.08a29 29 0 0 0 11.41-2.37 21.1 21.1 0 0 0 9.25-7.64q3.71-5.33 3.71-14 0-10.31-5.16-15.94t-14.49-5.67z"/></svg>
